X: 37
M: 4/4
L: 1/8
K: D
d2dA dAF[AD] | E2E2 EFGA | B2"b."Bc BAFE | D2[d2D2] [dD]ABc |
d2"c."dA dAF[AD] | E2E2 EFGA | B2Bc BAFE | D2 [d2D2] [d2D2] :|
P: VAR:
"a."A2B2 || "b."B2 || "c."d2 |]


